X: 43549
T: You're Welcome Says Maureen McHugh
R: jig
M: 6/8
K: Gmajor
GFG AGE|~D3 GAB|ABG ABd|edB BAB|
GFG AGE|~ D3 GAB|~d3 edB|1 ABA G2D:|2 ABA G2B||
ded d2B|deg edB|efe e2d|efg age|
dBd g2e|dge dBG|ABG ABd|edB BAB|
ded d2B|deg edB|efe e2d|efg aga|
bag age|egd edB|ABG ABd|egf edB||

